images/blitzpredict.svg

<svg height="250" viewBox="0 0 250 250" width="250" xmlns="http://www.w3.org/2000/svg"><path d="m250 125c0 69.035156-55.964844 125-125 125s-125-55.964844-125-125 55.964844-125 125-125 125 55.964844 125 125zm0 0" fill="#fff"/><path d="m175.25 77.5c-2-2.5-5-4.75-9.25-6.5s-10.25-2.5-17.5-2.5h-16l12.75-35.5 8.5-23.5c-8.25-1.75-17-3-26.25-3.25-1 0-1.75 0-2.5 0-1.5 0-2.5 0-4 0-63.75 2.25-114.75 54.75-114.75 118.75 0 35.5 15.75 67.5 40.25 89.25l9.5-25.75c-15.5-16.75-25-39.25-25-63.75 0-47.25 35.25-86.5 80.5-92.75 2.5-.25 4.5-.5 7-.75l-34.25 94.25 68.25-6.75c2-.5 3.75-1.5 6.25-2.5 2.25-1.25 4.5-2.75 6.75-4.75s4.25-4 6.25-6.5c2-2.25 3.25-5.25 4.5-8.25 1.25-3.25 2-6.75 2-10 0-3.5-1-6.75-3-9.25zm-29 23c-1.5 4-3.75 7-7 8.5-3.25 1.75-6.5 2.5-9.75 2.5h-12.25l8.25-22.75h12c1.5 0 2.75.25 4.25.5 1.5.5 2.5 1 3.5 2s1.5 2.25 1.75 3.5c.25 1.75 0 3.5-.75 5.75zm0 0" fill="#263238"/><path d="m160 11.5-8.75 23.5c39 11.5 67.5 47.5 67.5 90 0 51.75-42 93.75-93.75 93.75-12.75 0-25.25-2.5-36.5-7.25-2-.75-3.75-1.75-5.75-2.5l9.75-26.75h16c14.25 0 26.25-2.25 35.25-7.25 9.25-4.75 15.75-12.5 19.75-23.25 1.5-4 2-7.25 1.75-10.5-.5-3-1.25-5.5-2.5-7.5-1.5-2.25-3-3.75-5-5.25-1.75-1.25-3.25-2-5-2.5l-69.5 6.5-22.25 60.75-9 25c7 5.5 14.5 10.25 22.5 14 2 1 3.75 1.75 5.75 2.5 13.75 5.75 29 8.75 45 8.75 65.5 0 118.75-53.25 118.75-118.75-.25-53.25-35.75-98.25-84-113.25zm-50.75 125.25h14.5c1.75 0 3.25.25 5.25.5s3.25 1 4.75 1.75c1.25 1 2.25 2.25 2.5 3.75.5 1.75.25 3.75-.75 6.5s-2.5 5.25-4 7-3.5 3-5.5 3.75c-2 1-3.75 1.5-6 1.75s-3.75.5-5.5.5h-14.5zm0 0" fill="#20af65"/></svg>

<!-- Generator: Adobe Illustrator 23.0.1, SVG Export Plug-In . SVG Version: 6.00 Build 0)  -->
<svg xmlns="http://www.w3.org/2000/svg" xmlns:xlink="http://www.w3.org/1999/xlink" width="250px" height="250px" viewBox="0 0 250 250" version="1.1">
<g id="surface1">
<path style=" stroke:none;fill-rule:nonzero;fill:rgb(100%,100%,100%);fill-opacity:1;" d="M 250 125 C 250 194.035156 194.035156 250 125 250 C 55.964844 250 0 194.035156 0 125 C 0 55.964844 55.964844 0 125 0 C 194.035156 0 250 55.964844 250 125 Z M 250 125 "/>
<path style=" stroke:none;fill-rule:nonzero;fill:rgb(14.901961%,19.607843%,21.960784%);fill-opacity:1;" d="M 175.25 77.5 C 173.25 75 170.25 72.75 166 71 C 161.75 69.25 155.75 68.5 148.5 68.5 L 132.5 68.5 L 145.25 33 L 153.75 9.5 C 145.5 7.75 136.75 6.5 127.5 6.25 C 126.5 6.25 125.75 6.25 125 6.25 C 123.5 6.25 122.5 6.25 121 6.25 C 57.25 8.5 6.25 61 6.25 125 C 6.25 160.5 22 192.5 46.5 214.25 L 56 188.5 C 40.5 171.75 31 149.25 31 124.75 C 31 77.5 66.25 38.25 111.5 32 C 114 31.75 116 31.5 118.5 31.25 L 84.25 125.5 L 152.5 118.75 C 154.5 118.25 156.25 117.25 158.75 116.25 C 161 115 163.25 113.5 165.5 111.5 C 167.75 109.5 169.75 107.5 171.75 105 C 173.75 102.75 175 99.75 176.25 96.75 C 177.5 93.5 178.25 90 178.25 86.75 C 178.25 83.25 177.25 80 175.25 77.5 Z M 146.25 100.5 C 144.75 104.5 142.5 107.5 139.25 109 C 136 110.75 132.75 111.5 129.5 111.5 L 117.25 111.5 L 125.5 88.75 L 137.5 88.75 C 139 88.75 140.25 89 141.75 89.25 C 143.25 89.75 144.25 90.25 145.25 91.25 C 146.25 92.25 146.75 93.5 147 94.75 C 147.25 96.5 147 98.25 146.25 100.5 Z M 146.25 100.5 "/>
<path style=" stroke:none;fill-rule:nonzero;fill:rgb(12.54902%,68.627453%,39.607844%);fill-opacity:1;" d="M 160 11.5 L 151.25 35 C 190.25 46.5 218.75 82.5 218.75 125 C 218.75 176.75 176.75 218.75 125 218.75 C 112.25 218.75 99.75 216.25 88.5 211.5 C 86.5 210.75 84.75 209.75 82.75 209 L 92.5 182.25 L 108.5 182.25 C 122.75 182.25 134.75 180 143.75 175 C 153 170.25 159.5 162.5 163.5 151.75 C 165 147.75 165.5 144.5 165.25 141.25 C 164.75 138.25 164 135.75 162.75 133.75 C 161.25 131.5 159.75 130 157.75 128.5 C 156 127.25 154.5 126.5 152.75 126 L 83.25 132.5 L 61 193.25 L 52 218.25 C 59 223.75 66.5 228.5 74.5 232.25 C 76.5 233.25 78.25 234 80.25 234.75 C 94 240.5 109.25 243.5 125.25 243.5 C 190.75 243.5 244 190.25 244 124.75 C 243.75 71.5 208.25 26.5 160 11.5 Z M 109.25 136.75 L 123.75 136.75 C 125.5 136.75 127 137 129 137.25 C 131 137.5 132.25 138.25 133.75 139 C 135 140 136 141.25 136.25 142.75 C 136.75 144.5 136.5 146.5 135.5 149.25 C 134.5 152 133 154.5 131.5 156.25 C 130 158 128 159.25 126 160 C 124 161 122.25 161.5 120 161.75 C 117.75 162 116.25 162.25 114.5 162.25 L 100 162.25 Z M 109.25 136.75 "/>
</g>
</svg>
